public/assets/external-link.svg

<svg width="14" height="14" viewBox="0 0 14 14" fill="none" xmlns="http://www.w3.org/2000/svg">
<g clip-path="url(#clip0)">
<path fill-rule="evenodd" clip-rule="evenodd" d="M2.91667 3.9375C2.72328 3.9375 2.53781 4.01432 2.40107 4.15107C2.26432 4.28781 2.1875 4.47328 2.1875 4.66667V11.0833C2.1875 11.2767 2.26432 11.4622 2.40107 11.5989C2.53781 11.7357 2.72328 11.8125 2.91667 11.8125H9.33333C9.52672 11.8125 9.71219 11.7357 9.84893 11.5989C9.98568 11.4622 10.0625 11.2767 10.0625 11.0833V7.58333C10.0625 7.34171 10.2584 7.14583 10.5 7.14583C10.7416 7.14583 10.9375 7.34171 10.9375 7.58333V11.0833C10.9375 11.5088 10.7685 11.9168 10.4677 12.2177C10.1668 12.5185 9.75879 12.6875 9.33333 12.6875H2.91667C2.49121 12.6875 2.08319 12.5185 1.78235 12.2177C1.48151 11.9168 1.3125 11.5088 1.3125 11.0833V4.66667C1.3125 4.24122 1.48151 3.83319 1.78235 3.53235C2.08319 3.23151 2.49122 3.0625 2.91667 3.0625H6.41667C6.65829 3.0625 6.85417 3.25838 6.85417 3.5C6.85417 3.74162 6.65829 3.9375 6.41667 3.9375H2.91667Z" fill="white"/>
<path fill-rule="evenodd" clip-rule="evenodd" d="M8.3125 1.75C8.3125 1.50838 8.50838 1.3125 8.75 1.3125H12.25C12.4916 1.3125 12.6875 1.50838 12.6875 1.75V5.25C12.6875 5.49162 12.4916 5.6875 12.25 5.6875C12.0084 5.6875 11.8125 5.49162 11.8125 5.25V2.1875H8.75C8.50838 2.1875 8.3125 1.99162 8.3125 1.75Z" fill="white"/>
<path fill-rule="evenodd" clip-rule="evenodd" d="M12.5594 1.44064C12.7303 1.6115 12.7303 1.8885 12.5594 2.05936L6.14273 8.47603C5.97188 8.64688 5.69487 8.64688 5.52401 8.47603C5.35316 8.30517 5.35316 8.02816 5.52401 7.85731L11.9407 1.44064C12.1115 1.26979 12.3885 1.26979 12.5594 1.44064Z" fill="white"/>
</g>
<defs>
<clipPath id="clip0">
<rect width="14" height="14" fill="white"/>
</clipPath>
</defs>
</svg>

<svg width="14" height="14" fill="none" xmlns="http://www.w3.org/2000/svg"><g clip-path="url(#clip0)" fill-rule="evenodd" clip-rule="evenodd" fill="#fff"><path d="M2.92 3.94a.73.73 0 00-.73.73v6.41a.73.73 0 00.73.73h6.41a.73.73 0 00.73-.73v-3.5a.44.44 0 01.88 0v3.5a1.6 1.6 0 01-1.6 1.6H2.91a1.6 1.6 0 01-1.6-1.6V4.67a1.6 1.6 0 011.6-1.6h3.5a.44.44 0 010 .87h-3.5zM8.31 1.75c0-.24.2-.44.44-.44h3.5c.24 0 .44.2.44.44v3.5a.44.44 0 01-.88 0V2.19H8.75a.44.44 0 01-.44-.44z"/><path d="M12.56 1.44c.17.17.17.45 0 .62L6.14 8.48a.44.44 0 01-.62-.62l6.42-6.42a.44.44 0 01.62 0z"/></g><defs><clipPath id="clip0"><path fill="#fff" d="M0 0h14v14H0z"/></clipPath></defs></svg>
